packages/styles/assets/img/flags/FJ.svg

<svg width="24" height="16" viewBox="0 0 24 16" fill="none" xmlns="http://www.w3.org/2000/svg">
    <g clip-path="url(#clip0_13761_68329)">
        <path d="M24 -0.00256348H0V15.9949H24V-0.00256348Z" fill="#338AF3" />
        <path d="M12 -0.00256348H0V7.99994H12V-0.00256348Z" fill="#2E52B2" />
        <path
            d="M12 -0.00256348V1.06244L9.84 2.50244H12V5.50244H9.84L12 6.94244V7.99994H10.9425L7.5 5.70494V7.99994H4.5V5.70494L1.0575 7.99994H0V6.94244L2.16 5.50244H0V2.50244H2.16L0 1.06244V-0.00256348H1.0575L4.5 2.29244V-0.00256348H7.5V2.29244L10.9425 -0.00256348H12Z"
            fill="#F0F0F0"
        />
        <path
            d="M6.75 -0.00256348H5.25V3.25244H0V4.75244H5.25V7.99994H6.75V4.75244H12V3.25244H6.75V-0.00256348Z"
            fill="#D80027"
        />
        <path d="M0 -0.00256348V0.709937L2.6925 2.50244H3.75L0 -0.00256348Z" fill="#D80027" />
        <path d="M12 -0.00256348V0.709937L9.3075 2.50244H8.25L12 -0.00256348Z" fill="#D80027" />
        <path d="M0 -0.00256348V0.709937L2.6925 2.50244H3.75L0 -0.00256348Z" fill="#D80027" />
        <path d="M12 -0.00256348V0.709937L9.3075 2.50244H8.25L12 -0.00256348Z" fill="#D80027" />
        <path d="M0 7.99994V7.29494L2.6925 5.50244H3.75L0 7.99994Z" fill="#D80027" />
        <path d="M12 7.99994V7.29494L9.3075 5.50244H8.25L12 7.99994Z" fill="#D80027" />
        <path
            d="M15.5625 5.87748V8.65249C15.5625 10.5125 18 11.0825 18 11.0825C18 11.0825 20.4375 10.5125 20.4375 8.65249V5.87748L18 5.17249L15.5625 5.87748Z"
            fill="#F3F3F3"
        />
        <path
            d="M20.4375 6.0425V5H15.5625V6.0425H17.655V8.1275H15.5625V8.825H17.655V11.1275C17.7679 11.1689 17.8831 11.204 18 11.2325C18.1169 11.204 18.2321 11.1689 18.345 11.1275V8.8025H20.4375V8.1275H18.345V6.0425H20.4375Z"
            fill="#D80027"
        />
    </g>
    <defs>
        <clipPath id="clip0_13761_68329">
            <rect width="24" height="16" fill="white" />
        </clipPath>
    </defs>
</svg>

<svg xmlns="http://www.w3.org/2000/svg" width="24" height="16" fill="none" viewBox="0 0 24 16">
    <g clip-path="url(#clip0)">
        <path fill="#2E52B2" d="M24-.003H0v15.998h24V-.003z" />
        <path
            fill="#F0F0F0"
            d="M12-.003v1.065l-2.16 1.44H12v3H9.84L12 6.942V8h-1.057L7.5 5.705V8h-3V5.705L1.058 8H0V6.942l2.16-1.44H0v-3h2.16L0 1.062V-.003h1.058L4.5 2.292V-.003h3v2.295l3.443-2.295H12z"
        />
        <path fill="#D80027" d="M6.75-.003h-1.5v3.255H0v1.5h5.25V8h1.5V4.752H12v-1.5H6.75V-.003z" />
        <path fill="#D80027" d="M0-.003V.71l2.692 1.792H3.75L0-.003zm12 0V.71L9.307 2.502H8.25L12-.003z" />
        <path
            fill="#D80027"
            d="M0-.003V.71l2.692 1.792H3.75L0-.003zm12 0V.71L9.307 2.502H8.25L12-.003zM0 8v-.705l2.692-1.793H3.75L0 8zm12 0v-.705L9.307 5.502H8.25L12 8z"
        />
        <path
            fill="#F3F3F3"
            d="M15.563 5.75v2.775c0 1.86 2.437 2.43 2.437 2.43s2.438-.57 2.438-2.43V5.75L18 5.045l-2.438.705z"
        />
        <path
            fill="#D80027"
            d="M20.438 5.915V4.872h-4.875v1.043h2.092V8h-2.093v.697h2.093V11a3.2 3.2 0 00.345.105 3.19 3.19 0 00.345-.105V8.675h2.093V8h-2.093V5.915h2.093z"
        />
    </g>
    <defs>
        <clipPath id="clip0">
            <path fill="#fff" d="M0 0h24v16H0z" />
        </clipPath>
    </defs>
</svg>
